src/img/svg/guaranteed.svg

<svg width="32" height="32" viewBox="0 0 32 32" fill="none" xmlns="http://www.w3.org/2000/svg">
  <g clip-path="url(#clip0)">
    <path
      d="M20.7343 11.3721C20.6473 11.3721 20.5639 11.4067 20.5024 11.4683L14.7877 17.1829L11.499 13.8939C11.4363 13.8347 11.3533 13.8016 11.2671 13.8016C11.1808 13.8016 11.0978 13.8347 11.0351 13.8939L9.7093 15.2199C9.64782 15.2815 9.61328 15.3649 9.61328 15.4519C9.61328 15.5389 9.64782 15.6223 9.7093 15.6838L14.5564 20.5305C14.5868 20.561 14.623 20.5852 14.6628 20.6017C14.7026 20.6182 14.7452 20.6267 14.7883 20.6267C14.8314 20.6267 14.8741 20.6182 14.9138 20.6017C14.9536 20.5852 14.9898 20.561 15.0202 20.5305L22.2921 13.2581C22.3535 13.1966 22.3881 13.1131 22.3881 13.0261C22.3881 12.9391 22.3535 12.8556 22.2921 12.7941L20.9662 11.4683C20.9047 11.4067 20.8213 11.3721 20.7343 11.3721ZM14.7877 19.8345L10.4053 15.4519L11.2678 14.5894L14.5564 17.8787C14.5868 17.9092 14.623 17.9334 14.6628 17.9499C14.7026 17.9664 14.7452 17.9749 14.7883 17.9749C14.8314 17.9749 14.8741 17.9664 14.9138 17.9499C14.9536 17.9334 14.9898 17.9092 15.0202 17.8787L20.7343 12.1643L21.5968 13.0268L14.7877 19.8345Z"
      fill="#9C9C9C"/>
    <path
      d="M15.9993 7.06152C14.2316 7.06152 12.5035 7.58571 11.0337 8.56781C9.56392 9.5499 8.41835 10.9458 7.74187 12.5789C7.0654 14.2121 6.8884 16.0092 7.23326 17.7429C7.57813 19.4767 8.42937 21.0693 9.67933 22.3192C10.9293 23.5692 12.5219 24.4204 14.2556 24.7653C15.9894 25.1102 17.7864 24.9332 19.4196 24.2567C21.0528 23.5802 22.4487 22.4346 23.4307 20.9648C24.4128 19.495 24.937 17.767 24.937 15.9993C24.9343 13.6297 23.9918 11.3579 22.3163 9.68229C20.6407 8.00672 18.3689 7.0642 15.9993 7.06152ZM15.9993 24.2808C14.3614 24.2808 12.7602 23.7951 11.3983 22.8851C10.0364 21.9751 8.97498 20.6817 8.34817 19.1685C7.72136 17.6552 7.55736 15.9901 7.8769 14.3836C8.19645 12.7772 8.98518 11.3016 10.1434 10.1434C11.3016 8.98518 12.7772 8.19644 14.3836 7.8769C15.9901 7.55736 17.6552 7.72136 19.1685 8.34816C20.6817 8.97497 21.9751 10.0364 22.8851 11.3983C23.7951 12.7602 24.2808 14.3613 24.2808 15.9993C24.2783 18.1949 23.405 20.2999 21.8524 21.8524C20.2999 23.405 18.1949 24.2783 15.9993 24.2808Z"
      fill="#9C9C9C"/>
    <path
      d="M27.6299 17.0522C27.8709 16.7543 28.0023 16.3828 28.0023 15.9997C28.0023 15.6166 27.8709 15.2451 27.6299 14.9473L27.0922 14.276C26.9891 14.1472 26.9186 13.9955 26.8865 13.8336C26.8544 13.6718 26.8617 13.5046 26.9079 13.3462L27.1479 12.5229C27.2533 12.1548 27.2308 11.7618 27.0842 11.408C26.9376 11.0543 26.6754 10.7606 26.3405 10.575L25.5892 10.1625C25.4445 10.0832 25.3209 9.97027 25.2291 9.8332C25.1372 9.69613 25.0797 9.53896 25.0614 9.37497L24.9676 8.52091C24.9275 8.13973 24.7578 7.78388 24.4867 7.51286C24.2157 7.24184 23.8599 7.07208 23.4787 7.03197L22.6246 6.93822C22.4606 6.91998 22.3035 6.86251 22.1664 6.77067C22.0293 6.67882 21.9164 6.55532 21.8371 6.4106L21.4246 5.6591C21.2418 5.32142 20.9485 5.05689 20.5938 4.90989C20.2391 4.76288 19.8446 4.74234 19.4765 4.85172L18.6534 5.09153C18.4949 5.13759 18.3277 5.14486 18.1658 5.11275C18.0039 5.08064 17.8521 5.01009 17.7232 4.90703L17.0519 4.36928C16.7541 4.12845 16.3826 3.99707 15.9995 3.99707C15.6164 3.99707 15.245 4.12845 14.9471 4.36928L14.2758 4.90703C14.1469 5.00987 13.9951 5.08028 13.8333 5.11235C13.6716 5.14442 13.5044 5.13722 13.346 5.09135L12.5227 4.85135C12.1545 4.74588 11.7615 4.76829 11.4078 4.91492C11.054 5.06155 10.7603 5.32374 10.5748 5.65872L10.1623 6.41003C10.083 6.55476 9.97006 6.67828 9.83299 6.77015C9.69592 6.86202 9.53875 6.91954 9.37476 6.93785L8.52069 7.03159C8.13952 7.07171 7.78367 7.24147 7.51265 7.51249C7.24163 7.78351 7.07187 8.13936 7.03176 8.52053L6.93801 9.3746C6.91976 9.53858 6.86229 9.69576 6.77045 9.83284C6.67861 9.96991 6.5551 10.0829 6.41038 10.1621L5.65888 10.5746C5.32128 10.7575 5.05682 11.0508 4.90982 11.4055C4.76283 11.7602 4.74224 12.1547 4.85151 12.5227L5.09169 13.3457C5.13775 13.5041 5.14502 13.6714 5.11292 13.8333C5.08081 13.9951 5.01025 14.1469 4.90719 14.2758L4.36944 14.9471C4.12851 15.2449 3.99707 15.6164 3.99707 15.9995C3.99707 16.3826 4.12851 16.7541 4.36944 17.052L4.90719 17.7232C5.01027 17.852 5.08083 18.0038 5.11291 18.1656C5.14499 18.3275 5.13765 18.4946 5.09151 18.653L4.85151 19.4763C4.74603 19.8445 4.7684 20.2375 4.91495 20.5913C5.06151 20.9451 5.32361 21.2388 5.65851 21.4245L6.40982 21.837C6.55455 21.9162 6.67807 22.0292 6.76994 22.1662C6.8618 22.3033 6.91932 22.4605 6.93763 22.6245L7.03138 23.4785C7.0715 23.8597 7.24126 24.2156 7.51228 24.4866C7.78329 24.7576 8.13914 24.9274 8.52032 24.9675L9.37438 25.0612C9.53837 25.0795 9.69555 25.1369 9.83262 25.2288C9.9697 25.3206 10.0826 25.4441 10.1619 25.5888L10.5744 26.3403C10.7572 26.678 11.0505 26.9425 11.4052 27.0896C11.76 27.2366 12.1544 27.2571 12.5225 27.1477L13.3454 26.9075C13.5039 26.8616 13.6711 26.8544 13.833 26.8865C13.9949 26.9186 14.1467 26.9891 14.2756 27.092L14.9469 27.6298C15.2447 27.8707 15.6162 28.0022 15.9993 28.0022C16.3824 28.0022 16.7539 27.8707 17.0518 27.6298L17.723 27.092C17.8519 26.989 18.0036 26.9185 18.1654 26.8864C18.3272 26.8543 18.4944 26.8616 18.6528 26.9077L19.4761 27.1477C19.8442 27.257 20.2386 27.2364 20.5932 27.0894C20.9479 26.9424 21.2412 26.6779 21.4241 26.3403L21.8366 25.589C21.9158 25.4443 22.0288 25.3208 22.1658 25.2289C22.3029 25.137 22.4601 25.0795 22.6241 25.0612L23.4781 24.9675C23.8593 24.9274 24.2152 24.7576 24.4862 24.4866C24.7572 24.2156 24.927 23.8597 24.9671 23.4785L25.0608 22.6245C25.0791 22.4605 25.1365 22.3033 25.2284 22.1662C25.3202 22.0292 25.4437 21.9162 25.5884 21.837L26.3399 21.4245C26.6775 21.2416 26.942 20.9482 27.089 20.5935C27.236 20.2389 27.2566 19.8444 27.1473 19.4763L26.9071 18.6534C26.8611 18.4949 26.8538 18.3277 26.8859 18.1658C26.918 18.0039 26.9886 17.8521 27.0916 17.7232L27.6299 17.0522ZM26.5799 17.3133C26.4111 17.5245 26.2954 17.7732 26.2428 18.0385C26.1902 18.3037 26.2022 18.5777 26.2777 18.8373L26.5181 19.6603C26.5847 19.8849 26.5721 20.1255 26.4824 20.3419C26.3927 20.5583 26.2313 20.7373 26.0253 20.8488L25.2736 21.2613C25.0363 21.3914 24.8339 21.5767 24.6834 21.8017C24.5329 22.0266 24.4389 22.2844 24.4093 22.5534L24.3155 23.4075C24.2909 23.64 24.1872 23.8571 24.0219 24.0225C23.8565 24.1878 23.6394 24.2915 23.4069 24.3161L22.5526 24.4098C22.2837 24.4396 22.0259 24.5337 21.801 24.6842C21.5761 24.8347 21.3908 25.0371 21.2608 25.2744L20.8483 26.0259C20.7366 26.2318 20.5577 26.3931 20.3413 26.4828C20.125 26.5725 19.8844 26.5851 19.6599 26.5187L18.8368 26.2785C18.5772 26.2028 18.3032 26.1908 18.038 26.2434C17.7727 26.2959 17.524 26.4116 17.3129 26.5805L16.6417 27.1183C16.4599 27.2654 16.2332 27.3456 15.9993 27.3456C15.7655 27.3456 15.5387 27.2654 15.3569 27.1183L14.6857 26.5805C14.4745 26.4116 14.2258 26.296 13.9606 26.2434C13.6953 26.1908 13.4213 26.2027 13.1617 26.2783L12.3389 26.5185C12.1144 26.5849 11.8738 26.5722 11.6574 26.4825C11.4411 26.3928 11.2621 26.2316 11.1504 26.0257L10.7379 25.274C10.6078 25.0367 10.4225 24.8343 10.1976 24.6838C9.97266 24.5333 9.71479 24.4393 9.44582 24.4097L8.59176 24.3159C8.3592 24.2913 8.14212 24.1876 7.97675 24.0223C7.81139 23.8569 7.70775 23.6398 7.68313 23.4073L7.58938 22.553C7.55962 22.2841 7.46552 22.0263 7.31503 21.8014C7.16454 21.5765 6.96209 21.3912 6.72482 21.2612L5.97332 20.8487C5.76899 20.7354 5.60906 20.5563 5.5196 20.3404C5.43015 20.1246 5.41646 19.8849 5.48076 19.6603L5.72094 18.8372C5.79653 18.5776 5.80854 18.3036 5.75596 18.0384C5.70339 17.7732 5.58778 17.5245 5.41888 17.3133L4.88076 16.6421C4.73371 16.4603 4.6535 16.2335 4.6535 15.9997C4.6535 15.7659 4.73371 15.5391 4.88076 15.3573L5.41851 14.6861C5.58739 14.4749 5.70301 14.2262 5.75562 13.961C5.80822 13.6957 5.79627 13.4217 5.72076 13.1621L5.48076 12.3392C5.41413 12.1146 5.42672 11.8739 5.51643 11.6575C5.60615 11.4411 5.76752 11.2622 5.97351 11.1506L6.72519 10.7381C6.96249 10.608 7.16495 10.4227 7.31542 10.1978C7.46588 9.97287 7.55992 9.71501 7.58957 9.44603L7.68332 8.59197C7.70811 8.35931 7.81199 8.14221 7.97761 7.97693C8.14323 7.81166 8.36055 7.70822 8.59326 7.68391L9.44751 7.59016C9.71645 7.5604 9.97426 7.4663 10.1991 7.3158C10.424 7.16531 10.6093 6.96287 10.7394 6.7256L11.1519 5.9741C11.2651 5.77003 11.444 5.61025 11.6595 5.52073C11.875 5.4312 12.1145 5.41719 12.3389 5.48097L13.1621 5.72116C13.4217 5.79677 13.6956 5.8088 13.9609 5.75622C14.2261 5.70365 14.4748 5.58802 14.6859 5.4191L15.3571 4.88097C15.5389 4.7339 15.7657 4.65366 15.9995 4.65366C16.2333 4.65366 16.4601 4.7339 16.6419 4.88097L17.3131 5.41872C17.5244 5.58751 17.7731 5.70307 18.0383 5.75567C18.3035 5.80827 18.5775 5.79637 18.8371 5.72097L19.6601 5.48097C19.8847 5.41459 20.1252 5.42731 20.3416 5.517C20.5579 5.60668 20.7369 5.76791 20.8486 5.97372L21.2611 6.72541C21.3912 6.96271 21.5765 7.16517 21.8014 7.31563C22.0264 7.4661 22.2842 7.56014 22.5532 7.58978L23.4073 7.68353C23.6398 7.70815 23.8569 7.81179 24.0223 7.97715C24.1876 8.14252 24.2913 8.3596 24.3159 8.59216L24.4096 9.44641C24.4394 9.71535 24.5335 9.97316 24.684 10.198C24.8345 10.4229 25.0369 10.6082 25.2742 10.7383L26.0257 11.1508C26.23 11.264 26.39 11.4432 26.4795 11.659C26.569 11.8748 26.5827 12.1145 26.5184 12.3392L26.2783 13.1623C26.2027 13.4219 26.1907 13.6959 26.2432 13.9611C26.2958 14.2263 26.4114 14.475 26.5803 14.6861L27.1181 15.3573C27.2651 15.5391 27.3453 15.7659 27.3453 15.9997C27.3453 16.2335 27.2651 16.4603 27.1181 16.6421L26.5799 17.3133Z"
      fill="#9C9C9C"/>
  </g>
  <defs>
    <clipPath id="clip0">
      <rect x="4" y="4" width="24" height="24" fill="white"/>
    </clipPath>
  </defs>
</svg>

<svg width="32" height="32" fill="none" xmlns="http://www.w3.org/2000/svg"><g clip-path="url(#clip0)" fill="#9C9C9C"><path d="M20.734 11.372a.328.328 0 00-.232.096l-5.714 5.715-3.289-3.29a.338.338 0 00-.464 0L9.71 15.22a.328.328 0 000 .464l4.847 4.847a.327.327 0 00.464 0l7.272-7.273a.329.329 0 000-.464l-1.326-1.326a.328.328 0 00-.232-.096zm-5.946 8.462l-4.383-4.382.863-.863 3.288 3.29a.327.327 0 00.464 0l5.714-5.715.863.863-6.81 6.807z"/><path d="M16 7.062a8.938 8.938 0 108.937 8.937 8.948 8.948 0 00-8.938-8.937zm0 17.219a8.282 8.282 0 118.28-8.282A8.29 8.29 0 0116 24.281z"/><path d="M27.63 17.052a1.673 1.673 0 000-2.105l-.538-.671a1.028 1.028 0 01-.184-.93l.24-.823a1.694 1.694 0 00-.808-1.948l-.75-.412a1.028 1.028 0 01-.529-.788l-.093-.854a1.673 1.673 0 00-1.49-1.489l-.853-.094a1.027 1.027 0 01-.788-.527l-.412-.752a1.673 1.673 0 00-1.948-.807l-.824.24a1.03 1.03 0 01-.93-.185l-.671-.538a1.674 1.674 0 00-2.105 0l-.671.538a1.031 1.031 0 01-.93.184l-.823-.24a1.694 1.694 0 00-1.948.808l-.413.751a1.028 1.028 0 01-.787.528l-.854.094A1.673 1.673 0 007.03 8.52l-.093.854a1.027 1.027 0 01-.528.787l-.751.413a1.674 1.674 0 00-.807 1.948l.24.823a1.03 1.03 0 01-.185.93l-.538.671a1.673 1.673 0 000 2.105l.538.671a1.028 1.028 0 01.185.93l-.24.823a1.694 1.694 0 00.807 1.948l.75.413a1.028 1.028 0 01.529.788l.093.854a1.673 1.673 0 001.49 1.489l.853.093a1.027 1.027 0 01.788.528l.412.751a1.674 1.674 0 001.949.808l.822-.24a1.032 1.032 0 01.93.184l.672.538a1.673 1.673 0 002.105 0l.671-.538a1.03 1.03 0 01.93-.184l.823.24a1.673 1.673 0 001.948-.808l.413-.751a1.028 1.028 0 01.787-.528l.854-.093a1.673 1.673 0 001.49-1.49l.093-.854a1.028 1.028 0 01.527-.787l.752-.413a1.674 1.674 0 00.807-1.948l-.24-.823a1.03 1.03 0 01.185-.93l.538-.67zm-1.05.261a1.687 1.687 0 00-.302 1.524l.24.823a1.021 1.021 0 01-.493 1.189l-.751.412a1.684 1.684 0 00-.865 1.292l-.093.854a1.022 1.022 0 01-.91.91l-.853.093a1.685 1.685 0 00-1.292.864l-.413.752a1.022 1.022 0 01-1.188.493l-.823-.24a1.683 1.683 0 00-1.524.302l-.671.537a1.021 1.021 0 01-1.285 0l-.671-.537a1.686 1.686 0 00-1.524-.303l-.823.24a1.023 1.023 0 01-1.189-.492l-.412-.752a1.685 1.685 0 00-1.292-.864l-.854-.094a1.022 1.022 0 01-.909-.909l-.094-.854a1.685 1.685 0 00-.864-1.292l-.752-.412a1.034 1.034 0 01-.492-1.189l.24-.823a1.685 1.685 0 00-.302-1.524l-.538-.67a1.022 1.022 0 010-1.286l.538-.67a1.687 1.687 0 00.302-1.525l-.24-.823a1.022 1.022 0 01.493-1.188l.751-.413a1.684 1.684 0 00.865-1.292l.093-.854a1.022 1.022 0 01.91-.908l.855-.094a1.684 1.684 0 001.291-.864l.413-.752a1.034 1.034 0 011.187-.493l.823.24a1.685 1.685 0 001.524-.302l.671-.538a1.021 1.021 0 011.285 0l.671.538a1.688 1.688 0 001.524.302l.823-.24a1.023 1.023 0 011.189.493l.412.751a1.684 1.684 0 001.292.865l.854.094a1.022 1.022 0 01.909.908l.094.854a1.685 1.685 0 00.864 1.292l.752.413a1.034 1.034 0 01.492 1.188l-.24.823a1.686 1.686 0 00.302 1.524l.538.671a1.022 1.022 0 010 1.285l-.538.671z"/></g><defs><clipPath id="clip0"><path fill="#fff" d="M4 4h24v24H4z"/></clipPath></defs></svg>
